packages/core/src/svgs/gns.svg

<svg width="24" height="24" viewBox="0 0 24 24" fill="none" xmlns="http://www.w3.org/2000/svg">
<g clip-path="url(#clip0_31_10865)">
<path d="M0 0H24V24H0V0Z" fill="#F0F3FA"/>
<path d="M14.9614 8.27556C15.2528 8.44698 15.4285 8.75127 15.4285 9.08556V14.9141C15.4285 15.437 15.1028 15.857 14.5714 15.857C14.04 15.857 13.7143 15.437 13.7143 14.9141V11.2841C13.7143 10.997 13.2 10.817 12.9428 10.9498L9.55711 12.737C9.33319 12.8552 9.0719 12.881 8.82918 12.8089C8.58646 12.7368 8.38163 12.5725 8.25854 12.3513C8.19903 12.2424 8.16189 12.1228 8.14932 11.9994C8.13675 11.876 8.14899 11.7513 8.18533 11.6327C8.22167 11.5141 8.28138 11.4039 8.36093 11.3087C8.44048 11.2135 8.53827 11.1352 8.64854 11.0784L14.0185 8.25413C14.3143 8.09984 14.6743 8.10841 14.9614 8.27556Z" fill="url(#paint0_linear_31_10865)"/>
<path d="M9.42847 10.6501C10.1999 10.4229 10.757 10.4015 11.3785 10.4015C12.2913 10.4015 12.9642 10.6329 13.2085 10.9158C13.3713 10.9586 13.7142 11.1001 13.7142 11.2843V14.9143C13.7142 15.4372 14.0399 15.8572 14.5713 15.8572C15.1028 15.8572 15.4285 15.4372 15.4285 14.9143V9.08577C15.4285 8.75148 15.2485 8.44291 14.957 8.27577C14.8137 8.19294 14.6517 8.14755 14.4862 8.14381C14.3207 8.14006 14.1569 8.17808 14.0099 8.25434L9.42847 10.6501Z" fill="url(#paint1_linear_31_10865)"/>
<path d="M12.467 9.06006C12.9513 9.18863 13.7142 9.5272 13.7142 10.2858V11.2586C13.7142 11.2672 13.7142 11.2501 13.7142 11.2586V14.8929C13.7142 15.4072 14.0399 15.8572 14.5713 15.8572C15.1028 15.8572 15.4285 15.4372 15.4285 14.9143V9.08577C15.4285 8.75148 15.2485 8.44291 14.957 8.27577C14.8137 8.19294 14.6517 8.14755 14.4862 8.14381C14.3207 8.14006 14.1569 8.17808 14.0099 8.25434L12.467 9.06006Z" fill="url(#paint2_linear_31_10865)"/>
<path d="M11.0142 13.9071L9.94274 14.5328C9.78845 14.6228 9.71559 14.8071 9.80988 14.9614C9.93417 15.1671 10.1442 15.4285 10.4442 15.6214C10.7527 15.8228 11.0827 15.8657 11.3227 15.8571C11.4856 15.8442 11.5713 15.7028 11.5713 15.54V14.2285C11.5713 13.9414 11.2713 13.7571 11.0142 13.9114V13.9071Z" fill="url(#paint3_linear_31_10865)"/>
<path fill-rule="evenodd" clip-rule="evenodd" d="M12.0001 18.4286C13.705 18.4286 15.3402 17.7513 16.5458 16.5458C17.7513 15.3402 18.4286 13.705 18.4286 12.0001C18.4286 10.2951 17.7513 8.65997 16.5458 7.45438C15.3402 6.24879 13.705 5.5715 12.0001 5.5715C10.2951 5.5715 8.65997 6.24879 7.45438 7.45438C6.24879 8.65997 5.5715 10.2951 5.5715 12.0001C5.5715 13.705 6.24879 15.3402 7.45438 16.5458C8.65997 17.7513 10.2951 18.4286 12.0001 18.4286ZM12.0001 19.2858C13.9324 19.2858 15.7855 18.5182 17.1518 17.1518C18.5182 15.7855 19.2858 13.9324 19.2858 12.0001C19.2858 10.0678 18.5182 8.21463 17.1518 6.84829C15.7855 5.48196 13.9324 4.71436 12.0001 4.71436C10.0678 4.71436 8.21463 5.48196 6.84829 6.84829C5.48196 8.21463 4.71436 10.0678 4.71436 12.0001C4.71436 13.9324 5.48196 15.7855 6.84829 17.1518C8.21463 18.5182 10.0678 19.2858 12.0001 19.2858Z" fill="url(#paint4_linear_31_10865)"/>
</g>
<defs>
<linearGradient id="paint0_linear_31_10865" x1="14.8543" y1="8.1427" x2="9.19282" y2="13.1398" gradientUnits="userSpaceOnUse">
<stop offset="0.45" stop-color="#266E84"/>
<stop offset="1" stop-color="#56DBAE"/>
</linearGradient>
<linearGradient id="paint1_linear_31_10865" x1="12.9556" y1="8.33148" x2="12.3256" y2="15.8615" gradientUnits="userSpaceOnUse">
<stop offset="0.18" stop-color="#2F778D"/>
<stop offset="0.27" stop-color="#43B39C"/>
</linearGradient>
<linearGradient id="paint2_linear_31_10865" x1="13.9113" y1="8.14291" x2="13.9113" y2="15.8572" gradientUnits="userSpaceOnUse">
<stop stop-color="#4CFB8F"/>
<stop offset="1" stop-color="#1FC3F1"/>
</linearGradient>
<linearGradient id="paint3_linear_31_10865" x1="10.637" y1="14.3142" x2="11.3742" y2="15.8228" gradientUnits="userSpaceOnUse">
<stop stop-color="#34D6C1"/>
<stop offset="1" stop-color="#38BFD2"/>
</linearGradient>
<linearGradient id="paint4_linear_31_10865" x1="8.14293" y1="6.42864" x2="16.2858" y2="18.2144" gradientUnits="userSpaceOnUse">
<stop stop-color="#4CFB8F"/>
<stop offset="1" stop-color="#28CEDD"/>
</linearGradient>
<clipPath id="clip0_31_10865">
<rect width="24" height="24" fill="white"/>
</clipPath>
</defs>
</svg>

<svg xmlns="http://www.w3.org/2000/svg" width="24" height="24" fill="none" viewBox="0 0 24 24"><g clip-path="url(#a)"><path fill="#F0F3FA" d="M0 0h24v24H0z"/><path fill="url(#b)" d="M14.961 8.276a.94.94 0 0 1 .467.81v5.828c0 .523-.325.943-.857.943-.531 0-.857-.42-.857-.943v-3.63c0-.287-.514-.467-.771-.334l-3.386 1.787a.97.97 0 0 1-1.298-.386.93.93 0 0 1 .39-1.273l5.37-2.824a.98.98 0 0 1 .942.022"/><path fill="url(#c)" d="M9.428 10.65c.772-.227 1.329-.248 1.95-.248.913 0 1.586.23 1.83.514.163.043.506.184.506.368v3.63c0 .523.326.943.857.943.532 0 .857-.42.857-.943V9.086a.93.93 0 0 0-.471-.81.99.99 0 0 0-.947-.022z"/><path fill="url(#d)" d="M12.467 9.06c.484.129 1.247.467 1.247 1.226v.973c0 .008 0-.009 0 0v3.634c0 .514.326.964.857.964.532 0 .857-.42.857-.943V9.086a.93.93 0 0 0-.471-.81.99.99 0 0 0-.947-.022z"/><path fill="url(#e)" d="m11.014 13.907-1.071.626c-.155.09-.227.274-.133.428.124.206.334.467.634.66.309.202.639.245.879.236.163-.013.248-.154.248-.317v-1.311c0-.288-.3-.472-.557-.318z"/><path fill="url(#f)" fill-rule="evenodd" d="M12 18.429A6.429 6.429 0 1 0 12 5.57a6.429 6.429 0 0 0 0 12.858m0 .857a7.285 7.285 0 1 0 0-14.57 7.285 7.285 0 0 0 0 14.57" clip-rule="evenodd"/></g><defs><linearGradient id="b" x1="14.854" x2="9.193" y1="8.143" y2="13.14" gradientUnits="userSpaceOnUse"><stop offset=".45" stop-color="#266E84"/><stop offset="1" stop-color="#56DBAE"/></linearGradient><linearGradient id="c" x1="12.956" x2="12.326" y1="8.331" y2="15.861" gradientUnits="userSpaceOnUse"><stop offset=".18" stop-color="#2F778D"/><stop offset=".27" stop-color="#43B39C"/></linearGradient><linearGradient id="d" x1="13.911" x2="13.911" y1="8.143" y2="15.857" gradientUnits="userSpaceOnUse"><stop stop-color="#4CFB8F"/><stop offset="1" stop-color="#1FC3F1"/></linearGradient><linearGradient id="e" x1="10.637" x2="11.374" y1="14.314" y2="15.823" gradientUnits="userSpaceOnUse"><stop stop-color="#34D6C1"/><stop offset="1" stop-color="#38BFD2"/></linearGradient><linearGradient id="f" x1="8.143" x2="16.286" y1="6.429" y2="18.214" gradientUnits="userSpaceOnUse"><stop stop-color="#4CFB8F"/><stop offset="1" stop-color="#28CEDD"/></linearGradient><clipPath id="a"><path fill="#fff" d="M0 0h24v24H0z"/></clipPath></defs></svg>
